X:1
T:Ye Heralds of Jesus
T:Lelia Naylor Morris, 1909
T:Ye Heralds of Jesus
T:Public Domain
T:Public Domain
T:Public Domain
C:Lelia Naylor Morris, 1909
Z:Public Domain
%%score ( 1 2 ) ( 3 4 )
L:1/8
M:6/4
K:F
V:1 treble 
V:2 treble 
V:3 bass 
V:4 bass 
V:1
 C2 | [CF]2 [CF]2 [CG]2 [FA]2 [FA]2 [Fc]2 | [Fd]2 [Fc]2 [F=B]2 [Fc]4 [FA]2 | %3
w: 1.~Ye|alds of Je- sus, go forth|with the light, And scat-|
w: 2.~’Tis|O be- lov- èd, re- deemed|by the blood, Sal- va-|
w: 3.~Com-|sioned of Je- sus, the lost|ones to win, Go, reach|
w: 4.~In|ty or vil- lage, wher- ev-|er they be, Go thou|
 [Ac]2 [GB]2 [FA]2 [GB]2 [Be]3 [Bd] | [Ac]6- [Ac]4 [GB]2 | [FA]2 [F^G]2 [FA]2 [EB]2 [EA]2 [E=G]2 | %6
w: ter its glad beams a- broad;|’Twill * glad-|den the na- tions like songs|
w: tion’s good news to im- part|To- * day|to thy bro- ther, who sinks|
w: out a glad help- ing hand;|In * might-|y bat- tal- ions they’re sink-|
w: with the life- giv- ing Word;|Stay * not,|till all peo- ple, from sea|
 [Fc]2 [Ec]2 [Fc]2 [Fd]4 [Fd]2 | [Fc]2 F2 [GB]2 [FA]2 [FA]2 [CG]2 | [CF]6- [CF]4 || %9
w: in the night, And win|pre- cious souls for your Lord.||
w: ’neath his load, With glad-|ness to fill the sad heart.|forth *|
w: ing in sin, Those you|might bring safe- ly to land.||
w: un- to sea, The old|Gos- pel sto- ry have heard.||
"^Refrain" [Ac]2 | [Gd]8 [ce]2 [Bd]2 | [Ac]6- [Ac]4 [FA]2 | [Ec]8 [EG]2 [Bd]2 | %13
w: ||||
w: with|the light, go|forth * with|the light! Go,|
w: ||||
w: ||||
 [Ac]6- [Ac]4 [GB]2 | [FA]3 [F^G] [FA]2 [EB]2 [EA]2 [E=G]2 | [Fc]2 [Ec]2 [Fc]2 [Fd]4 [Fd]2 | %16
w: |||
w: scat- * ter|the beams o’er the dark o-|cean wave, And point them|
w: |||
w: |||
 [Ff]3 [Fe] [Fd]2 [Fc]2 F2 [GB]2 | [FA] [FA]3 [EG]2 F4 |] %18
w: ||
w: to Je- sus, the might- y|save. * * *|
w: ||
w: ||
V:2
 C2 | x12 | x12 | x12 | x12 | x12 | x12 | x2 F2 x8 | x10 || x2 | x12 | x12 | x12 | x12 | x12 | %15
w: her-|||||||||||||||
w: thine,|||||||Go||||||||
w: mis-|||||||||||||||
w: ci-|||||||||||||||
 x12 | x8 F2 x2 | x6 F4 |] %18
w: |||
w: |to||
w: |||
w: |||
V:3
 [F,A,]2 | [F,A,]2 [F,A,]2 [F,B,]2 [F,C]2 [F,C]2 [F,A,]2 | %2
w: ~|~ ~ ~ ~ ~ ~|
 [F,B,]2 [F,A,]2 [F,^G,]2 [F,A,]4 [F,C]2 | [C,C]2 [C,C]2 [C,C]2 [C,C]2 [C,C]3 [C,E] | %4
w: ~ ~ ~ ~ ~|~ ~ ~ ~ ~ ~|
 [F,F]6- [F,F]4 [F,C]2 | [F,C]2 [F,=B,]2 [F,C]2 [G,C]2 C2 [_B,C]2 | %6
w: ~ * ~|~ ~ ~ ~ ~ ~|
 [A,C]2 [G,B,]2 [F,A,]2 [B,,B,]4 [B,,B,]2 | [A,,C]2 [D,A,]2 [G,,D]2 [C,C]2 [C,C]2 [C,B,]2 | %8
w: ~ ~ ~ ~ ~|~ ~ ~ ~ ~ ~|
 [F,,F,A,]6- [F,,F,A,]4 || [F,F]2 | [B,F]3 [B,F] [B,F]2 [B,F]4 [B,F]2 | %11
w: Go *|forth|with the light, go forth|
 [F,F]3 [F,F] [F,F]2 [F,F]4 [F,C]2 | [C,C]3 [C,G,] [C,G,]2 [C,G,]2 [C,C]2 [C,E]2 | %13
w: with the light, Ye her-|alds of Je- sus, go forth|
 [F,F]3 [F,F] [F,F]2 [F,F]4 [F,C]2 | [F,C]3 [F,=B,] [F,C]2 [G,C]2 C2 [_B,C]2 | %15
w: with the light! * *||
 [A,C]2 [G,B,]2 [F,A,]2 [B,,B,]4 [B,,B,]2 | [B,,D]3 [B,,C] [B,,B,]2 [B,,C]2 [D,A,]2 [G,,D]2 | %17
w: ||
 [C,C] [C,C]3 [C,B,]2 [F,,F,A,]4 |] %18
w: |
V:4
 x2 | x12 | x12 | x12 | x12 | x8 C2 x2 | x12 | x12 | x10 || x2 | x12 | x12 | x12 | x12 | x8 C2 x2 | %15
w: |||||~||||||||||
 x12 | x12 | x10 |] %18
w: |||

